front/svg/symbols/main/share-twitter.svg

<?xml version="1.0" encoding="UTF-8" standalone="no"?>
<svg version="1.1" xmlns="http://www.w3.org/2000/svg" xmlns:xlink="http://www.w3.org/1999/xlink" viewBox="0 0 32 32" preserveAspectRatio="xMinYMin meet">
	<g stroke="none" stroke-width="1" fill="none" fill-rule="evenodd" tranform="translate(0,-2)">
		<path d="M25.6237042,11.9562093 L25.6237042,12.5725927 C25.6237042,18.8905231 20.8467324,26.1330288 12.0632681,26.1330288 C9.28954259,26.1330288 6.82400876,25.3625494 4.66666667,23.9756867 C5.12895426,23.9756867 5.43714599,24.1297825 5.89943358,24.1297825 C8.05677568,24.1297825 10.2141178,23.3593032 11.9091723,22.1265363 C9.90592605,22.1265363 8.05677568,20.7396735 7.44039222,18.7364273 C7.74858395,18.7364273 8.05677568,18.8905231 8.36496741,18.8905231 C8.827255,18.8905231 8.827255,18.8905231 9.44363845,18.7364273 C7.13220049,18.2741397 5.12895426,16.2708935 5.12895426,13.9594555 L5.12895426,13.9594555 C5.12895426,14.4217431 6.82400876,14.4217431 7.59448808,14.5758389 C6.36172117,13.6512638 5.59124185,12.264401 5.59124185,10.5693465 C5.59124185,9.64477129 5.89943358,8.87429197 6.36172117,8.10381265 C8.67315913,11.0316341 12.3714599,12.8807844 16.2238565,13.1889762 C16.0697606,12.7266886 16.0697606,12.4184968 16.0697606,12.1103051 C16.0697606,9.49067543 18.2271027,7.33333333 20.8467324,7.33333333 C22.2335952,7.33333333 23.4663621,7.79562093 24.3909373,8.87429197 C25.4696083,8.56610025 26.3941835,8.25790852 27.3187587,7.64152506 C26.8564711,8.87429197 26.0859918,9.64477129 25.3155125,10.2611548 C26.2400876,10.1070589 27.3187587,9.79886716 28.089238,9.49067543 C27.3187587,10.4152506 26.5482794,11.3398258 25.6237042,11.9562093 L25.6237042,11.9562093 Z" fill="#2AA9E0"></path>
	</g>
</svg>

<svg xmlns="http://www.w3.org/2000/svg" viewBox="0 0 32 32" preserveAspectRatio="xMinYMin meet"><path d="M25.624 11.956v.617c0 6.318-4.777 13.56-13.56 13.56-2.774 0-5.24-.77-7.397-2.157.462 0 .77.154 1.232.154 2.157 0 4.314-.77 6.01-2.003-2.004 0-3.853-1.387-4.47-3.39.31 0 .617.154.925.154.462 0 .462 0 1.08-.154-2.313-.462-4.316-2.465-4.316-4.777 0 .462 1.694.462 2.464.616-1.232-.925-2.003-2.312-2.003-4.007 0-.925.31-1.696.772-2.466 2.31 2.928 6.01 4.777 9.862 5.085-.154-.463-.154-.772-.154-1.08 0-2.62 2.157-4.777 4.777-4.777 1.387 0 2.62.463 3.544 1.54 1.08-.307 2.004-.615 2.93-1.23-.464 1.23-1.234 2.002-2.004 2.618.924-.153 2.003-.46 2.773-.77-.77.925-1.542 1.85-2.466 2.466z" fill="#2AA9E0" fill-rule="evenodd"/></svg>
